icons/filled/folders.svg

<svg xmlns="http://www.w3.org/2000/svg" width="24" height="24" viewBox="0 0 24 24" fill="currentColor"><path d="M12 2a1 1 0 0 1 .707 .293l1.708 1.707h4.585a3 3 0 0 1 2.995 2.824l.005 .176v7a3 3 0 0 1 -3 3h-1v1a3 3 0 0 1 -3 3h-10a3 3 0 0 1 -3 -3v-9a3 3 0 0 1 3 -3h1v-1a3 3 0 0 1 3 -3zm-6 6h-1a1 1 0 0 0 -1 1v9a1 1 0 0 0 1 1h10a1 1 0 0 0 1 -1v-1h-7a3 3 0 0 1 -3 -3z"/></svg>

<svg xmlns="http://www.w3.org/2000/svg" width="24" height="24" fill="currentColor"><path d="M12 2a1 1 0 0 1 .707.293L14.415 4H19a3 3 0 0 1 2.995 2.824L22 7v7a3 3 0 0 1-3 3h-1v1a3 3 0 0 1-3 3H5a3 3 0 0 1-3-3V9a3 3 0 0 1 3-3h1V5a3 3 0 0 1 3-3zM6 8H5a1 1 0 0 0-1 1v9a1 1 0 0 0 1 1h10a1 1 0 0 0 1-1v-1H9a3 3 0 0 1-3-3z"/></svg>
